Numix-Light-GalliumOS/24/status/battery-080.svg

<svg xmlns="http://www.w3.org/2000/svg" viewBox="0 0 24 24">
 <path d="m 9 4 0 2 -3 0 0 14 12 0 0 -14 -3 0 0 -2" style="fill:#353535;opacity:0.4;fill-opacity:1"/>
 <path d="m 6 7.2 0 12.8 12 0 0 -12.8" style="fill:#353535;fill-opacity:1"/>
</svg>

<?xml version="1.0" encoding="UTF-8" standalone="no"?>
<svg
   xmlns:dc="http://purl.org/dc/elements/1.1/"
   xmlns:cc="http://creativecommons.org/ns#"
   xmlns:rdf="http://www.w3.org/1999/02/22-rdf-syntax-ns#"
   xmlns:svg="http://www.w3.org/2000/svg"
   xmlns="http://www.w3.org/2000/svg"
   xmlns:sodipodi="http://sodipodi.sourceforge.net/DTD/sodipodi-0.dtd"
   xmlns:inkscape="http://www.inkscape.org/namespaces/inkscape"
   width="24"
   viewBox="0 0 24 24"
   height="24"
   id="svg3033"
   version="1.1"
   inkscape:version="0.91 r"
   sodipodi:docname="xfpm-ups-080.svg">
  <metadata
     id="metadata3045">
    <rdf:RDF>
      <cc:Work
         rdf:about="">
        <dc:format>image/svg+xml</dc:format>
        <dc:type
           rdf:resource="http://purl.org/dc/dcmitype/StillImage" />
        <dc:title />
      </cc:Work>
    </rdf:RDF>
  </metadata>
  <defs
     id="defs3043" />
  <sodipodi:namedview
     pagecolor="#ffffff"
     bordercolor="#666666"
     borderopacity="1"
     objecttolerance="10"
     gridtolerance="10"
     guidetolerance="10"
     inkscape:pageopacity="0"
     inkscape:pageshadow="2"
     inkscape:window-width="1366"
     inkscape:window-height="747"
     id="namedview3041"
     showgrid="false"
     inkscape:zoom="10.727273"
     inkscape:cx="0.82518694"
     inkscape:cy="8.8174326"
     inkscape:window-x="0"
     inkscape:window-y="21"
     inkscape:window-maximized="1"
     inkscape:current-layer="svg3033" />
  <path
     d="M 9,4 9,6 6,6 6,20 18,20 18,6 15,6 15,4 Z"
     id="path3037"
     style="opacity:0.4;fill:#353535;fill-opacity:1"
     inkscape:connector-curvature="0" />
  <path
     d="M 6,7.2 6,20 18,20 18,7.2 Z"
     id="path3039"
     style="fill:#353535;fill-opacity:1"
     inkscape:connector-curvature="0" />
</svg>
